!! 00000] TT[WS
!!!OTL: Mai Cai
!!!ARE: Asia, China, Shanxi Xingxian
!! Ethnic Group: Han
!! WII, 48 (2)
!!!SCT: J0465
!!!YEM: Copyright 1995, estate of Helmut Schaffrath.
**kern
*ICvox
*Ivox
!! Mixed meters:  2/4; 3/4
*M3/4
*k[b-]
*F:
{8dd
8dd
8dd
8ff
=1
8dd
8a
2cc}
=2
*M2/4
{8dd
8dd
8dd
8ff
=3
*M3/4
8cc
8a
2g}
=4
*M2/4
{8g
8a
8g
8a
=5
8g
8a
4cc
=6
8f
8d
4c}
=7
{8cc
8a
8g
8cc
=8
8c
8d
8f
8g
=9
8f
8d
4c}
=10
{8dd
8dd
8ff
8a
=11
2cc}
==
!!!AGN: Xiaodiao. Maimai, Qingge
!!!ONB: ESAC (Essen Associative Code) Database: CHINA
!!!AMT: irregular
!!!AIN: vox
!!!EED: Helmut Schaffrath
!!!EEV: 1.0
*-
